**kern	**kern
*staff2	*staff1
*clefF4	*clefG2
*k[b-e-a-]	*k[b-e-a-]
*M2/4	*M2/4
*E-:	*E-:
=-	=-
16BBB-LL	8B-L 8d 8f
16BB-	.
16CC	8AJ 8e- 8f
16CJJ	.
16DDLL	8B-L 8d 8f
16D	.
16BBB-	8B-J 8d 8f 8b-
16BB-JJ	.
=142	=142
16EE-LL	(4B- 4f 4a-
16E-	.
16FF	.
16FJJ	.
16GGLL	8e-L) 8g
16G	.
*	*^
16AA	8ee-J	8g
16AJJ	.	.
=143	=143	=143
16BB-LL	8ee-L	8fL
16B-	.	.
16C	16ddL	8e-J 8a
16cJJ	16ccJJ	.
16DLL	8b-L	8f
16d	.	.
*	*v	*v
16BB-	8ddJ 8bb-
16B-JJ	.
=144	=144
16E-LL	(4b- 4ff 4aa-
16e-	.
16BB-	.
16B-JJ	.
16GGLL	8b-L) 8ee- 8gg
16G	.
16EE-	8b-J
16E-JJ	.
=145	=145
*	*^
16BBB-LL	(8ee-	2f 2a-
16BB-	.	.
16BB-	4dd)	.
16B-JJ	.	.
16C-LL	.	.
16c-	.	.
16CC-	8ff	.
16C-JJ	.	.
=146	=146	=146
16BBB-LL	(8ee-	4.f 4.a-
16BB-	.	.
16BB-	4dd)	.
16B-JJ	.	.
16AA-LL	.	.
16A-	.	.
16AAA-	(16ccLL	8d 8f
16AA-JJ	16b-JJ)	.
=147	=147	=147
16GGGLL	(8ee-L	4.e-
16GG	.	.
16GG	8b-J)	.
16GJJ	.	.
16AAA-LL	(8ccL	.
16AA-	.	.
16AA-	16b-L	8f
16A-JJ	16a-JJ)	.
=148	=148	=148
16BB-LL	(4g	4.e-
16B-	.	.
16AA	.	.
16AJJ	.	.
16BB-LL	8fL)	.
16B-	.	.
16BBB-	8b-J	8d
16BB-JJ	.	.
=149	=149	=149
16BBBLL	(8a-	4d 4f
16BB	.	.
16BB	4g)	.
16BJJ	.	.
16CLL	.	8e-L
16c	.	.
*	*v	*v
*-	*-
